converted-html/public/images/icons/icon-wifi.svg

<?xml version="1.0" encoding="UTF-8" standalone="no"?>
<svg width="18px" height="18px" viewBox="0 0 18 18" version="1.1" xmlns="http://www.w3.org/2000/svg" xmlns:xlink="http://www.w3.org/1999/xlink" xmlns:sketch="http://www.bohemiancoding.com/sketch/ns">
    <title>icon-wifi</title>
    <description>Created with Sketch (http://www.bohemiancoding.com/sketch)</description>
    <defs></defs>
    <g id="Page-1" stroke="none" stroke-width="1" fill="none" fill-rule="evenodd" sketch:type="MSPage">
        <g id="icon-wifi" sketch:type="MSArtboardGroup" fill="#9E9EA8">
            <path d="M5.729625,12.227375 C5.8095,12.7521875 6.1633125,13.077875 6.519375,12.9546875 L6.5199375,12.9575 C7.3265625,12.6745625 8.1590625,12.5339375 8.989875,12.53675 C9.828,12.5339375 10.6678125,12.6824375 11.4885,12.9665 C11.8434375,13.0925 12.195,12.7595 12.279375,12.231875 C12.29175,12.1581875 12.29625,12.083375 12.29625,12.009125 C12.29625,11.567 12.0898125,11.1636875 11.786625,11.0568125 C10.868625,10.7406875 9.92925,10.5815 8.989875,10.5764375 C8.0578125,10.5798125 7.129125,10.7384375 6.219,11.0523125 C5.8635,11.178875 5.64525,11.702 5.729625,12.227375 Z M0.115875,5.1865625 C-0.216,5.418875 -0.3549375,6.0033125 -0.1996875,6.4893125 C-0.0466875,6.9775625 0.3465,7.1856875 0.6755625,6.95675 L0.6755625,6.96125 C3.312,5.1145625 6.1509375,4.1943125 8.996625,4.1943125 C11.8434375,4.1943125 14.684625,5.114 17.3199375,6.96125 C17.6495625,7.1924375 18.041625,6.982625 18.1974375,6.4893125 C18.2379375,6.3543125 18.2581875,6.21425 18.257625,6.0775625 C18.25875,5.7085625 18.1175625,5.355875 17.879625,5.1865625 C15.06825,3.2200625 12.034125,2.2300625 8.9971875,2.2300625 C5.9630625,2.2300625 2.9289375,3.2211875 0.115875,5.1865625 Z M3.70125,7.7706875 C3.357,7.9506875 3.177,8.508125 3.29625,9.0155 C3.4126875,9.5234375 3.7884375,9.795125 4.1315625,9.617375 C5.689125,8.814125 7.336125,8.413625 8.9859375,8.413625 C10.643625,8.41475 12.3024375,8.823125 13.876875,9.6303125 C14.218875,9.8069375 14.5963125,9.5358125 14.7133125,9.0245 C14.7375,8.9193125 14.74875,8.811875 14.74875,8.7066875 C14.74875,8.2983125 14.5783125,7.9175 14.304375,7.77575 C12.5915625,6.90275 10.7904375,6.456125 8.985375,6.4566875 C7.194375,6.456125 5.401125,6.8886875 3.70125,7.7706875 Z M9,18 C10.1045696,18 11,17.1045696 11,16 C11,14.8954304 10.1045696,14 9,14 C7.89543045,14 7,14.8954304 7,16 C7,17.1045696 7.89543045,18 9,18 Z" id="Fill-1" sketch:type="MSShapeGroup"></path>
        </g>
    </g>
</svg>

<svg width="18" height="18" viewBox="0 0 18 18" xmlns="http://www.w3.org/2000/svg" xmlns:sketch="http://www.bohemiancoding.com/sketch/ns"><title>icon-wifi</title><path d="M5.73 12.227c.08.525.434.851.79.727l.001.003c.807-.283 1.639-.424 2.47-.421.838-.003 1.678.146 2.499.43.355.126.707-.207.791-.735l.017-.223c0-.442-.206-.845-.51-.952-.918-.316-1.857-.475-2.797-.48-.932.003-1.861.162-2.771.476-.356.127-.574.65-.489 1.175zm-5.614-7.041c-.332.232-.471.817-.316 1.303.153.488.546.696.875.467v.004c2.636-1.847 5.475-2.767 8.321-2.767 2.847 0 5.688.92 8.323 2.767.33.231.722.021.877-.472.041-.135.061-.275.06-.412.001-.369-.14-.722-.378-.891-2.811-1.966-5.846-2.957-8.882-2.957-3.034 0-6.068.991-8.881 2.957zm3.585 2.584c-.344.18-.524.737-.405 1.245.116.508.492.78.835.602 1.558-.803 3.205-1.204 4.854-1.204 1.658.001 3.316.409 4.891 1.217.342.177.719-.095.836-.606.024-.105.035-.213.035-.318 0-.408-.17-.789-.444-.931-1.713-.873-3.514-1.32-5.319-1.319-1.791-.001-3.584.432-5.284 1.314zm5.299 10.229c1.105 0 2-.895 2-2s-.895-2-2-2-2 .895-2 2 .895 2 2 2z" sketch:type="MSShapeGroup" fill="#9E9EA8"/></svg>
